X:1
T:Rambleaway
M:6/4
L:1/4
K:F
F/2-G/2| A d d c A G| F E F G2 F/2G/2| A d d c A- G| F G A G2F/2-G/2|\
 A B A A F E| D E F E2F/2-G/2| A B A A G E| C D E D2||
